www/images/pearl@2x.svg

<svg fill="none" height="54" viewBox="0 0 55 54" width="55" xmlns="http://www.w3.org/2000/svg"><path d="m44.7682 39.7756-1.6112-2.0201v-10.9919c-.0014-.1618-.0386-.3214-.1092-.4676-.0705-.1462-.1727-.2756-.2993-.3791l-3.5704-16.98546c-.2129-.9205-.786-1.72184-1.5956-2.23097s-1.7906-.68517-2.7313-.49013c-.9406.19505-1.7654.74555-2.2962 1.5326-.5307.78705-.7249 1.74749-.5405 2.67386l.6959 3.305-4.5387-5.59247c-.4502-.55573-1.0583-.96775-1.7473-1.18387-.6889-.21613-1.4277-.22664-2.1227-.03019-.6951.19645-1.3151.59101-1.7815 1.1337-.4665.5427-.7584 1.20911-.8388 1.91482-.0593.46681-.023.94051.107 1.39331.1299.4528.3507.8755.6495 1.2433l3.4721 4.2853-6.7324 3.3867c-.6514.2678-1.21.7149-1.6084 1.2873-.3985.5724-.6199 1.2457-.6375 1.9388-.0175.6931.1694 1.3764.5383 1.9676.369.5912.9042 1.065 1.5411 1.3643-.4285.0508-.8424 1.5599-1.2178 1.769-1.5886.8764-2.1559 2.6737-1.5129 4.6641l1.7474 5.6742c.0793.2545.2482.473.4765.6165l8.4269 5.3028 3.2224 2.8134c.1057.1379.2429.2494.4006.3255.1577.0762.3315.1148.5072.1127.181.0005.3596-.0402.5219-.1188l12.7991-6.5357c.146-.0752.2736-.1806.3741-.3088s.1716-.2762.2084-.4339c.0422-.1604.0464-.3281.0123-.4903s-.1056-.3146-.209-.4455zm-13.3589 5.8004-2.7686-2.2192c-.0832-.104-.1828-.1943-.295-.2674l-8.2453-5.1989-1.6339-5.3028c-.1513-.4605-.4161-1.582.4387-2.0499.1888-.0899.3945-.1403.6042-.148s.4187.0276.6137.1035c.1499.047.2872.126.4023.2313s.205.2343.2634.3777l1.5129 4.2928c.1027.2765.308.5046.5749.6387l4.1605 1.983c.2063.0977.4379.1323.6645.0992s.4379-.1324.6063-.2849l7.5115-8.2304c.1197-.1052.2154-.234.281-.378.0655-.144.0994-.2999.0994-.4576s-.0339-.3136-.0994-.4576c-.0656-.1439-.1613-.2727-.281-.3779l-7.5645-6.1347c-.1744-.1438-.3889-.2328-.6156-.2553-.2266-.0226-.4549.0224-.6552.1291l-5.9457 3.1936c-.1703.0624-.3516.0912-.5333.0849s-.3604-.0478-.5258-.1219-.3144-.1795-.4383-.3102c-.1239-.1306-.2204-.284-.284-.4512-.0636-.1673-.093-.3452-.0865-.5237.0064-.1784.0486-.3538.1241-.5162s.1829-.3086.316-.4303c.133-.1217.2892-.2165.4596-.2789l.0983-.0445 8.2604-4.1666 12.4588 9.2169v10.8211c-.0007.2504.0846.4937.242.6907l1.0137 1.2625zm-10.2574-17.0657c.259-.0461.5125-1.4936.7564-1.5908l.1211-.052 5.3632-2.8742 5.9306 4.8424-5.9987 6.849-3.0258-1.4482-1.3389-3.8546c-.153-.4178-.3928-.7999-.7039-1.1221-.3112-.3221-.6872-.5774-1.104-.7495zm2.7913-18.3163c.017-.1825.073-.35951.1642-.51945s.2157-.29926.3653-.4089c.1422-.11232.3057-.19576.481-.24549s.3589-.06474.5402-.04416c.3633.04272.6948.22415.9229.50504l8.7521 10.82106-5.9457-4.3967c-.1709-.1256-.3745-.2012-.5872-.2183-.2128-.0171-.4261.0251-.6156.1217l-3.7822-4.6344c-.1134-.1358-.1979-.2925-.2485-.4609-.0507-.1684-.0665-.345-.0465-.5195zm10.2953-.25992c-.0743-.35357-.0024-.72161.1998-1.02316.2021-.30154.518-.5119.8781-.58478s.735-.00232 1.0421.19616.5214.50861.5956.86218l2.7081 12.88582-3.7822-4.7162z" fill="#000"/><g fill="#fff"><path d="m31.4093 45.576-2.7686-2.2192c-.0832-.104-.1828-.1943-.295-.2674l-8.2453-5.1989-1.6339-5.3028c-.1513-.4605-.4161-1.582.4387-2.0499.1888-.0899.3945-.1403.6042-.148s.4187.0276.6137.1035c.1499.047.2872.126.4023.2313s.205.2343.2634.3777l1.5129 4.2928c.1027.2765.308.5046.5749.6387l4.1605 1.983c.2063.0977.4379.1323.6645.0992s.4379-.1324.6063-.2849l7.5115-8.2304c.1197-.1052.2154-.234.281-.378.0655-.144.0994-.2999.0994-.4576s-.0339-.3136-.0994-.4576c-.0656-.1439-.1613-.2727-.281-.3779l-7.5645-6.1347c-.1744-.1438-.3889-.2328-.6156-.2553-.2266-.0226-.4549.0224-.6552.1291l-5.9457 3.1936c-.1703.0624-.3516.0912-.5333.0849s-.3604-.0478-.5258-.1219-.3144-.1795-.4383-.3102c-.1239-.1306-.2204-.284-.284-.4512-.0636-.1673-.093-.3452-.0865-.5237.0064-.1784.0486-.3538.1241-.5162s.1829-.3086.316-.4303c.133-.1217.2892-.2165.4596-.2789l.0983-.0445 8.2604-4.1666 12.4588 9.2169v10.8211c-.0007.2504.0846.4937.242.6907l1.0137 1.2625zm-7.4661-35.382c.017-.1825.073-.35951.1642-.51945s.2157-.29926.3653-.4089c.1422-.11232.3057-.19576.481-.24549s.3589-.06474.5402-.04416c.3633.04272.6948.22415.9229.50504l8.7521 10.82106-5.9457-4.3967c-.1709-.1256-.3745-.2012-.5872-.2183-.2128-.0171-.4261.0251-.6156.1217l-3.7822-4.6344c-.1134-.1358-.1979-.2925-.2485-.4609-.0507-.1684-.0665-.345-.0465-.5195zm10.2953-.25992c-.0743-.35357-.0024-.72161.1998-1.02316.2021-.30154.518-.5119.8781-.58478s.735-.00232 1.0421.19616.5214.50861.5956.86218l2.7081 12.88582-3.7822-4.7162z"/><circle cx="19.5" cy="27.5" r="2.5" stroke="#000" stroke-width="1.5"/></g></svg>

<svg width="55" height="54" viewBox="0 0 55 54" fill="none" xmlns="http://www.w3.org/2000/svg">
<path d="M44.7682 39.7756L43.157 37.7555V26.7636C43.1556 26.6018 43.1184 26.4422 43.0478 26.296C42.9773 26.1498 42.8751 26.0204 42.7485 25.9169L39.1781 8.93144C38.9652 8.01094 38.3921 7.2096 37.5825 6.70047C36.7729 6.19134 35.7919 6.0153 34.8512 6.21034C33.9106 6.40539 33.0858 6.95589 32.555 7.74294C32.0243 8.52999 31.8301 9.49043 32.0145 10.4168L32.7104 13.7218L28.1717 8.12933C27.7215 7.5736 27.1134 7.16158 26.4244 6.94546C25.7355 6.72933 24.9967 6.71882 24.3017 6.91527C23.6066 7.11172 22.9866 7.50628 22.5202 8.04897C22.0537 8.59167 21.7618 9.25808 21.6814 9.96379C21.6221 10.4306 21.6584 10.9043 21.7884 11.3571C21.9183 11.8099 22.1391 12.2326 22.4379 12.6004L25.91 16.8857L19.1776 20.2724C18.5262 20.5402 17.9676 20.9873 17.5692 21.5597C17.1707 22.1321 16.9493 22.8054 16.9317 23.4985C16.9142 24.1916 17.1011 24.8749 17.47 25.4661C17.839 26.0573 18.3742 26.5311 19.0111 26.8304C18.5826 26.8812 18.1687 28.3903 17.7933 28.5994C16.2047 29.4758 15.6374 31.2731 16.2804 33.2635L18.0278 38.9377C18.1071 39.1922 18.276 39.4107 18.5043 39.5542L26.9312 44.857L30.1536 47.6704C30.2593 47.8083 30.3965 47.9198 30.5542 47.9959C30.7119 48.0721 30.8857 48.1107 31.0614 48.1086C31.2424 48.1091 31.421 48.0684 31.5833 47.9898L44.3824 41.4541C44.5284 41.3789 44.656 41.2735 44.7565 41.1453C44.857 41.0171 44.9281 40.8691 44.9649 40.7114C45.0071 40.551 45.0113 40.3833 44.9772 40.2211C44.9431 40.0589 44.8716 39.9065 44.7682 39.7756ZM31.4093 45.576L28.6407 43.3568C28.5575 43.2528 28.4579 43.1625 28.3457 43.0894L20.1004 37.8905L18.4665 32.5877C18.3152 32.1272 18.0504 31.0057 18.9052 30.5378C19.094 30.4479 19.2997 30.3975 19.5094 30.3898C19.7191 30.3821 19.9281 30.4174 20.1231 30.4933C20.273 30.5403 20.4103 30.6193 20.5254 30.7246C20.6405 30.8299 20.7304 30.9589 20.7888 31.1023L22.3017 35.3951C22.4044 35.6716 22.6097 35.8997 22.8766 36.0338L27.0371 38.0168C27.2434 38.1145 27.475 38.1491 27.7016 38.116C27.9282 38.0829 28.1395 37.9836 28.3079 37.8311L35.8194 29.6007C35.9391 29.4955 36.0348 29.3667 36.1004 29.2227C36.1659 29.0787 36.1998 28.9228 36.1998 28.7651C36.1998 28.6074 36.1659 28.4515 36.1004 28.3075C36.0348 28.1636 35.9391 28.0348 35.8194 27.9296L28.2549 21.7949C28.0805 21.6511 27.866 21.5621 27.6393 21.5396C27.4127 21.517 27.1844 21.562 26.9841 21.6687L21.0384 24.8623C20.8681 24.9247 20.6868 24.9535 20.5051 24.9472C20.3234 24.9409 20.1447 24.8994 19.9793 24.8253C19.8139 24.7512 19.6649 24.6458 19.541 24.5151C19.4171 24.3845 19.3206 24.2311 19.257 24.0639C19.1934 23.8966 19.164 23.7187 19.1705 23.5402C19.1769 23.3618 19.2191 23.1864 19.2946 23.024C19.3701 22.8616 19.4775 22.7154 19.6106 22.5937C19.7436 22.472 19.8998 22.3772 20.0702 22.3148L20.1685 22.2703L28.4289 18.1037L40.8877 27.3206V38.1417C40.887 38.3921 40.9723 38.6354 41.1297 38.8324L42.1434 40.0949L31.4093 45.576ZM21.1519 28.5103C21.4109 28.4642 21.6644 27.0167 21.9083 26.9195L22.0294 26.8675L27.3926 23.9933L33.3232 28.8357L27.3245 35.6847L24.2987 34.2365L22.9598 30.3819C22.8068 29.9641 22.567 29.582 22.2559 29.2598C21.9447 28.9377 21.5687 28.6824 21.1519 28.5103ZM23.9432 10.194C23.9602 10.0115 24.0162 9.83449 24.1074 9.67455C24.1986 9.51461 24.3231 9.37529 24.4727 9.26565C24.6149 9.15333 24.7784 9.06989 24.9537 9.02016C25.129 8.97043 25.3126 8.95542 25.4939 8.976C25.8572 9.01872 26.1887 9.20015 26.4168 9.48104L35.1689 20.3021L29.2232 15.9054C29.0523 15.7798 28.8487 15.7042 28.636 15.6871C28.4232 15.67 28.2099 15.7122 28.0204 15.8088L24.2382 11.1744C24.1248 11.0386 24.0403 10.8819 23.9897 10.7135C23.939 10.5451 23.9232 10.3685 23.9432 10.194ZM34.2385 9.93408C34.1642 9.58051 34.2361 9.21247 34.4383 8.91092C34.6404 8.60938 34.9563 8.39902 35.3164 8.32614C35.6765 8.25326 36.0514 8.32382 36.3585 8.5223C36.6656 8.72078 36.8799 9.03091 36.9541 9.38448L39.6622 22.2703L35.88 17.5541L34.2385 9.93408Z" fill="black"/>
<path d="M31.4093 45.576L28.6407 43.3568C28.5575 43.2528 28.4579 43.1625 28.3457 43.0894L20.1004 37.8905L18.4665 32.5877C18.3152 32.1272 18.0504 31.0057 18.9052 30.5378C19.094 30.4479 19.2997 30.3975 19.5094 30.3898C19.7191 30.3821 19.9281 30.4174 20.1231 30.4933C20.273 30.5403 20.4103 30.6193 20.5254 30.7246C20.6405 30.8299 20.7304 30.9589 20.7888 31.1023L22.3017 35.3951C22.4044 35.6716 22.6097 35.8997 22.8766 36.0338L27.0371 38.0168C27.2434 38.1145 27.475 38.1491 27.7016 38.116C27.9282 38.0829 28.1395 37.9836 28.3079 37.8311L35.8194 29.6007C35.9391 29.4955 36.0348 29.3667 36.1004 29.2227C36.1659 29.0787 36.1998 28.9228 36.1998 28.7651C36.1998 28.6074 36.1659 28.4515 36.1004 28.3075C36.0348 28.1636 35.9391 28.0348 35.8194 27.9296L28.2549 21.7949C28.0805 21.6511 27.866 21.5621 27.6393 21.5396C27.4127 21.517 27.1844 21.562 26.9841 21.6687L21.0384 24.8623C20.8681 24.9247 20.6868 24.9535 20.5051 24.9472C20.3234 24.9409 20.1447 24.8994 19.9793 24.8253C19.8139 24.7512 19.6649 24.6458 19.541 24.5151C19.4171 24.3845 19.3206 24.2311 19.257 24.0639C19.1934 23.8966 19.164 23.7187 19.1705 23.5402C19.1769 23.3618 19.2191 23.1864 19.2946 23.024C19.3701 22.8616 19.4775 22.7154 19.6106 22.5937C19.7436 22.472 19.8998 22.3772 20.0702 22.3148L20.1685 22.2703L28.4289 18.1037L40.8877 27.3206V38.1417C40.887 38.3921 40.9723 38.6354 41.1297 38.8324L42.1434 40.0949L31.4093 45.576ZM23.9432 10.194C23.9602 10.0115 24.0162 9.83449 24.1074 9.67455C24.1986 9.51461 24.3231 9.37529 24.4727 9.26565C24.6149 9.15333 24.7784 9.06989 24.9537 9.02016C25.129 8.97043 25.3126 8.95542 25.4939 8.976C25.8572 9.01872 26.1887 9.20015 26.4168 9.48104L35.1689 20.3021L29.2232 15.9054C29.0523 15.7798 28.8487 15.7042 28.636 15.6871C28.4232 15.67 28.2099 15.7122 28.0204 15.8088L24.2382 11.1744C24.1248 11.0386 24.0403 10.8819 23.9897 10.7135C23.939 10.5451 23.9232 10.3685 23.9432 10.194ZM34.2385 9.93408C34.1642 9.58051 34.2361 9.21247 34.4383 8.91092C34.6404 8.60938 34.9563 8.39902 35.3164 8.32614C35.6765 8.25326 36.0514 8.32382 36.3585 8.5223C36.6656 8.72078 36.8799 9.03091 36.9541 9.38448L39.6622 22.2703L35.88 17.5541L34.2385 9.93408Z" fill="white"/>
<circle cx="19.5" cy="27.5" r="2.5" fill="white" stroke="black" stroke-width="1.5"/>
</svg>
